svgs/sharp-regular/school-flag.svg

<svg xmlns="http://www.w3.org/2000/svg" viewBox="0 0 576 512"><!--! Font Awesome Pro 6.4.2 by @fontawesome - https://fontawesome.com License - https://fontawesome.com/license (Commercial License) Copyright 2023 Fonticons, Inc. --><path d="M312 0H416V96H318.1l89.6 64H552h24v24V488v24H552 336 240 24 0V488 184 160H24 168.3L264 91.6V24 0h24 24zM528 464V208H400h-7.7l-6.3-4.5-98.1-70-98.1 70-6.3 4.5H176 48V464H240V400c0-26.5 21.5-48 48-48s48 21.5 48 48v64H528zM240 240a48 48 0 1 1 96 0 48 48 0 1 1 -96 0zm-80 16v64H96V256h64zm256 0h64v64H416V256zM160 352v64H96V352h64zm320 0v64H416V352h64z"/></svg>

<svg xmlns="http://www.w3.org/2000/svg" viewBox="0 0 576 512"><!--! Font Awesome Pro 6.6.0 by @fontawesome - https://fontawesome.com License - https://fontawesome.com/license (Commercial License) Copyright 2024 Fonticons, Inc. --><path d="M312 0L416 0l0 96-97.9 0 89.6 64L552 160l24 0 0 24 0 304 0 24-24 0-216 0-96 0L24 512 0 512l0-24L0 184l0-24 24 0 144.3 0L264 91.6 264 24l0-24 24 0 24 0zM528 464l0-256-128 0-7.7 0-6.3-4.5-98.1-70-98.1 70-6.3 4.5-7.7 0L48 208l0 256 192 0 0-64c0-26.5 21.5-48 48-48s48 21.5 48 48l0 64 192 0zM240 240a48 48 0 1 1 96 0 48 48 0 1 1 -96 0zm-80 16l0 64-64 0 0-64 64 0zm256 0l64 0 0 64-64 0 0-64zM160 352l0 64-64 0 0-64 64 0zm320 0l0 64-64 0 0-64 64 0z"/></svg>
